!!!!SEGMENT: pl-kk--kk-i-6--030_lilius-franciszek--ostende-faciem.krn
!!!cenid: 16xx:1005
!!!COM: Lilius, Franciszek
!!!COM-rismID: pe30020509
!!!CDT: ~1600-1657
!!!CNT: Polish
!!!OTL: Ostende faciem
!!!PDT:
!!!AGN: Sacred
!!!SMS-siglum: PL-Kk
!!!SMS-shelfmark: Kk.I.6
!!!SMS-shelfwork: 030 W
!!!SMS-variant:
!!!SMS-altvar:
!!!NIFC-rismSourceID: 1001135513
!!!NIFC-rismChildID: 1001136149
!!!NIFC-islandoraID: pl-kk:1634
!!!URL-pdf-islandora: https://repozytorium.nifc.pl/islandora/object/pl-kk%3A1634/datastream/PDF/view
!!!URL-scan: https://polish.musicsources.pl/pl/lokalizacje/galeria/rekopisy/6133 @EN{Scan on Polish Music Sources Website} @PL{Skany w portalu Dziedzictwo Muzyki Polskiej w otwartym dostępie}
!!!ONB-nifc: UWAGA: C (skan 0043,< s. 83),< T (skan 0148-0149,< s. 101-102),< B (skan 0259,< s. 100-101) Następny utwór: Gloria patri
!!!AIN: 1 empty 1 tenor 1 vox
!!!key:
**kern	**text	**kern	**text	**kern	**text
*part3	*part3	*part2	*part2	*part1	*part1
*staff3	*staff3	*staff2	*staff2	*staff1	*staff1
*Iempty	*	*Itenor	*	*Ivox	*
*I"Baſsus.	*	*I"Tenor.	*	*I"Cantus.	*
*I'B	*	*I'T	*	*I'S	*
*clefF4	*	*clefC4	*	*clefC4	*
*k[]	*	*k[]	*	*k[]	*
*d:	*	*d:	*	*d:	*
*M2/1	*	*M2/1	*	*M2/1	*
*met(c|)	*	*met(c|)	*	*met(c|)	*
=1	=1	=1	=1	=1	=1
0r	.	00r	.	1F/	O-
*	*	*	*	*lig	*
.	.	.	.	1G/	-sten-
=2-	=2-	=2-	=2-	=2-	=2-
2r	.	.	.	1A\	.
2D/	O-	.	.	.	.
*	*	*	*	*Xlig	*
!	!	!	!	!	!LO:MO:mod=-dat
2C/	-sten-	.	.	1A\,<	-de
2AA/	-dat	.	.	.	.
=3-	=3-	=3-	=3-	=3-	=3-
2.D/	fa-	2r	.	1A\	fa-
.	.	2d\	O-	.	.
4E\	.	.	.	.	.
2.F\	.	2c\	-sten-	1A\	-ci-
.	.	2A/	-dat	.	.
4E\	-ci-	.	.	.	.
=4-	=4-	=4-	=4-	=4-	=4-
1D\	-em	2d\	fa-	1A\,<	-em
.	.	2.f\	.	.	.
1D\	Su-	.	.	1A\	ſu-
.	.	4e\	.	.	.
.	.	1d\	.	.	.
=5-	=5-	=5-	=5-	=5-	=5-
1AA/	-am	.	.	1A\,<	-am
!	!	!LO:TX:a:t=P:problem=# below	!	!	!
.	.	4c#X\	ci-	.	.
.	.	4B\	-em	.	.
!	!	!LO:TX:a:t=P:problem=# above	!	!	!
2r	.	4c#X\	ſu-	1A\	So-
.	.	2d\	.	.	.
2A\	ſo-	.	.	.	.
!	!	!LO:TX:a:t=P:problem=# above	!	!	!
.	.	4c#X\	.	.	.
=6-	=6-	=6-	=6-	=6-	=6-
4D/	-net	4d,<\	-am	1A\,<	-net
4D/	Vox	4d\	ſo-	.	.
4F\	e-	4A/	-net	.	.
*	*	*custos:c	*	*	*
4F\	-ius	4A/	Vox	.	.
*custos:D	*	*	*	*	*
!	!	!LO:PB:g=original	!	!	!
2A\	in	4cny\	e-	1A\,<	Vox
.	.	4c\	-ius	.	.
!LO:LB:g=original	!	!	!	!	!
1D\	au-	4d\	in	.	.
.	.	2f\	au-	.	.
=7-	=7-	=7-	=7-	=7-	=7-
.	.	.	.	1A\	e-
.	.	8e\L	.	.	.
.	.	8d\J	.	.	.
2AA/	-ri-	4e\	.	.	.
.	.	4e\	-ri-	.	.
2D/	-bus	4d,<\	-bus	1A\,<	-ius
.	.	4d\	ſo-	.	.
4r	.	4A/	-net	.	.
4D/	ſo-	4A/	Vox	.	.
=8-	=8-	=8-	=8-	=8-	=8-
4AA/	-net	4c#X\	e-	1A\	in
4AA/	Vox	4c#\	-ius	.	.
!LO:TX:a:t=P:problem=# below	!	!	!	!	!
4C/	e-	2e\	in	.	.
!LO:TX:a:t=P:problem=# below	!	!	!	!	!
4C/	-ius	.	.	.	.
*	*	*	*	*lig	*
2D/	in	2d\	au-	1A\	au-
2.F\	au-	2cny\	-ri	.	.
=9-	=9-	=9-	=9-	=9-	=9-
.	.	1G/	bus	1c\	.
8E\L	.	.	.	.	.
8D\J	.	.	.	.	.
4E\	.	.	.	.	.
4E\	-ri-	.	.	.	.
*	*	*	*	*Xlig	*
*	*	*	*	*custos:A	*
2F\	-bus	2c\	no-	1A\	-ri-
*	*	*custos:D	*	*	*
1D\	No-	2d\	.	.	.
=10-	=10-	=10-	=10-	=10-	=10-
!	!	!LO:LB:g=original	!	!LO:LB:g=original	!
.	.	2D/	.	1A\,<	-bus
4C/	.	2.A/	.	.	.
4BB/	.	.	.	.	.
!LO:TX:a:t=P:problem=# below	!	!	!	!	!
2C#/	.	.	.	1A\	No-
.	.	4G/	.	.	.
*custos:AA	*	*	*	*	*
2D/	.	2F/	.	.	.
=11-	=11-	=11-	=11-	=11-	=11-
*	*	*	*	*lig	*
!LO:PB:g=original	!	!	!	!	!
2.AA/	.	2E/	.	1A\	.
.	.	1F/	.	.	.
4BB-X/	.	.	.	.	.
<0Cny/	.	.	.	1G/	.
.	.	4E/	.	.	.
.	.	4D/	.	.	.
*	*	*	*	*Xlig	*
=12-	=12-	=12-	=12-	=12-	=12-
.	.	1E/	.	(<1G/	-ſtris
1FF/	-stris	1F/	-ſtris	1A\,<)	.
=13-	=13-	=13-	=13-	=13-	=13-
*	*	*	*	*lig	*
2rBB	.	00r	.	1G/	e-
(2C/	e-	.	.	.	.
2D/)	.	.	.	1F/	.
2.F\	-lo-	.	.	.	.
*	*	*	*	*Xlig	*
=14-	=14-	=14-	=14-	=14-	=14-
*	*	*	*	*lig	*
.	.	.	.	1G/	-lo-
4F\	-qui-	.	.	.	.
2E\	-um	.	.	.	.
1.D\	Su-	.	.	1A\	.
*	*	*	*	*Xlig	*
=15-	=15-	=15-	=15-	=15-	=15-
.	.	1rA	.	1A\	-qui-
!LO:TX:a:t=P:problem=# below	!	!	!	!	!
2C#/	-um	.	.	.	.
2.D/	dul-	2rF	.	1A\,<	-um
.	.	2F/	e-	.	.
4E\	.	.	.	.	.
=16-	=16-	=16-	=16-	=16-	=16-
2.F\	.	2A/	-lo-	1A\	ſu-
.	.	2.c\	-qui-	.	.
4G\	.	.	.	.	.
4A\	.	.	.	1A\,<	-um
4G\	.	4B\	-um	.	.
4F\	.	2A/	.	.	.
*custos:E	*	*	*	*	*
4E\	.	.	.	.	.
=17-	=17-	=17-	=17-	=17-	=17-
*lig	*	*	*	*	*
!LO:LB:g=original	!	!	!	!	!
1D\	.	1F/	ſu-	1A\	dul-
*	*	*custos:F	*	*	*
1AA/	.	1E/	-um	1A\,<	-ce
*Xlig	*	*	*	*	*
=18-	=18-	=18-	=18-	=18-	=18-
!	!	!LO:LB:g=original	!	!	!
2D,</	-ce	2F/	dul-	1A\,<	et
2D/	et	4F/	-ce	.	.
.	.	4F/	et	.	.
2F\	fa-	2A/	fa-	1A\	fa-
!LO:TX:t=P:problem=♯above	!	!	!	!	!
4C#X/	-ci-	2E/	-ci-	.	.
!LO:TX:t=P:problem=♯above	!	!	!	!	!
4C#X/	-es	.	.	.	.
=19-	=19-	=19-	=19-	=19-	=19-
2D/	de-	2D/	-es	1A\	-ci-
2AA/	.	2E/	de-	.	.
*	*	*	*	*custos:A	*
2D/	.	2F/	.	1A\	-es
2Cny/	.	2E/	.	.	.
=20-	=20-	=20-	=20-	=20-	=20-
*	*	*	*	*lig	*
!	!	!	!	!LO:LB:g=original	!
1F\	.	4F/	.	1A\	de-
.	.	4G/	.	.	.
.	.	1A\	.	.	.
1E\	-co-	.	.	1B\	.
!	!	!LO:TX:a:t=P:problem=# below	!	!	!
.	.	2G#X/	co-	.	.
*	*	*	*	*Xlig	*
=21-	=21-	=21-	=21-	=21-	=21-
2AA,</	-ra	1A\	-ra	1c\	.
2.FF/	Ni-	.	.	.	.
.	.	0c\	Ni-	1A\	-co-
4GG/	.	.	.	.	.
4AA/	.	.	.	.	.
4BBny/	.	.	.	.	.
=22-	=22-	=22-	=22-	=22-	=22-
4C/	.	.	.	1G/	-ra
4D/	.	.	.	.	.
4E\	.	.	.	.	.
4C/	.	.	.	.	.
*lig	*	*	*	*lig	*
1D\	.	0A\	.	1F/	ni-
=23-	=23-	=23-	=23-	=23-	=23-
1AA/	.	.	.	1E/	.
*Xlig	*	*	*	*Xlig	*
!	!	!LO:TX:t=P:problem=brak kreski finalnej	!	!LO:TX:t=P:problem=brak kreski finalnej	!
!LO:N:vis=0	!	!LO:N:vis=0	!	!LO:N:vis=0	!
!LO:TX:t=P:problem=brak kreski finalnej	!	!LO:TX:a:t=P:problem=# below	!	!	!
!LO:TX:t=P:problem=druga fermata na dole	!	!LO:N:acc=#	!	!	!
1D\;	mis.	1Fn/;	-mis.	1D/;	-mis.
==	==	==	==	==	==
*-	*-	*-	*-	*-	*-
!!!system-decoration: [(s1,s2,s3)]
!!!RDF**kern: > = above
!!!RDF**kern: < = below
!!!EED: Andrzej Borzym
!!!EEV: 2021-03-22
!!!ENC: Berenika Jozajtis
!!!END: 2021-03-08
!!!YEC: Copyright 2022 Narodowy Instytut Fryderyka Chopina (https://polishscores.org)
!!!YEM: License CC-BY-4.0 (https://creativecommons.org/licenses/by/4.0)
